assets/img/braze_icons/book-closed.svg

<svg fill="none" height="24" viewBox="0 0 24 24" width="24" xmlns="http://www.w3.org/2000/svg"><path clip-rule="evenodd" d="m3.04426 19.2518c.04593.5621.14449 1.0788.39178 1.5642.38349.7526.99542 1.3645 1.74806 1.748.48534.2473 1.00204.3459 1.56414.3918.54119.0442 1.20554.0442 2.0105.0442h8.07986c.5272 0 .9819 0 1.3565-.0306.3953-.0323.7886-.1036 1.1669-.2964.5645-.2876 1.0235-.7465 1.3111-1.311.1928-.3784.2641-.7716.2964-1.167.0274-.3357.0306-.7357.0306-1.195 0-4.6129 0-9.22571 0-13.83856 0-.52714 0-.9819-.0306-1.35647-.0323-.39534-.1036-.78856-.2964-1.16694-.2876-.56449-.7466-1.02343-1.3111-1.31105-.3783-.19279-.7716-.26411-1.1669-.29641-.3746-.030601-.8293-.030586-1.3564-.03057h-8.07993c-.80495-.000011-1.46935-.00002-2.01053.0442-.5621.04592-1.0788.14449-1.56414.39178-.75264.38349-1.36457.99541-1.74806 1.74806-.24729.48534-.34585 1.00204-.39178 1.56414-.04422.54119-.04421 1.20554-.04419 2.01051v10.48261c-.00001.671-.01042 1.3422.04419 2.0105zm15.93184.7804c-.0222.2716-.0598.3723-.085.4218-.0959.1882-.2489.3411-.437.437-.0495.0252-.1502.0629-.4219.0851-.2833.0231-.6556.0239-1.2321.0239h-8.00003c-.85658 0-1.43888-.0008-1.88897-.0375-.43841-.0359-.66261-.1008-.81901-.1805-.37633-.1917-.68229-.4977-.87404-.874-.17917-.3517-.26777-.6562-.20119-1.1683.1276-.9816.96687-1.7397 1.98321-1.7397h12.00003c0 1.005.058 2.0295-.024 3.0322z" fill="#801ed7" fill-rule="evenodd"/></svg>

<svg width="24" height="24" viewBox="0 0 24 24" fill="none" xmlns="http://www.w3.org/2000/svg">
<path fill-rule="evenodd" clip-rule="evenodd" d="M3.04426 19.2518C3.09019 19.8139 3.18875 20.3306 3.43604 20.816C3.81953 21.5686 4.43146 22.1805 5.1841 22.564C5.66944 22.8113 6.18614 22.9099 6.74824 22.9558C7.28943 23 7.95378 23 8.75874 23H16.8386C17.3658 23 17.8205 23 18.1951 22.9694C18.5904 22.9371 18.9837 22.8658 19.362 22.673C19.9265 22.3854 20.3855 21.9265 20.6731 21.362C20.8659 20.9836 20.9372 20.5904 20.9695 20.195C20.9969 19.8593 21.0001 19.4593 21.0001 19C21.0001 14.3871 21.0001 9.77429 21.0001 5.16144C21.0001 4.6343 21.0001 4.17954 20.9695 3.80497C20.9372 3.40963 20.8659 3.01641 20.6731 2.63803C20.3855 2.07354 19.9265 1.6146 19.362 1.32698C18.9837 1.13419 18.5904 1.06287 18.1951 1.03057C17.8205 0.999969 17.3658 0.999984 16.8387 1H8.75877C7.95382 0.999989 7.28942 0.99998 6.74824 1.0442C6.18614 1.09012 5.66944 1.18869 5.1841 1.43598C4.43146 1.81947 3.81953 2.43139 3.43604 3.18404C3.18875 3.66938 3.09019 4.18608 3.04426 4.74818C3.00004 5.28937 3.00005 5.95372 3.00007 6.75869V17.2413C3.00006 17.9123 2.98965 18.5835 3.04426 19.2518ZM18.9761 20.0322C18.9539 20.3038 18.9163 20.4045 18.8911 20.454C18.7952 20.6422 18.6422 20.7951 18.4541 20.891C18.4046 20.9162 18.3039 20.9539 18.0322 20.9761C17.7489 20.9992 17.3766 21 16.8001 21H8.80007C7.94349 21 7.36119 20.9992 6.9111 20.9625C6.47269 20.9266 6.24849 20.8617 6.09209 20.782C5.71576 20.5903 5.4098 20.2843 5.21805 19.908C5.03888 19.5563 4.95028 19.2518 5.01686 18.7397C5.14446 17.7581 5.98373 17 7.00007 17H19.0001C19.0001 18.005 19.0581 19.0295 18.9761 20.0322Z" fill="#801ED7"/>
</svg>
